T: Dublin Mazurka
M: 3/4
L: 1/8
K: Gmaj
|DG|B2 BdBG|B2 BdBG|A2 AcBA|B2 G2 DG|
B2 BdBG|B2 BdBG|A2 AcBA|G2 G2:||
|dB|GD GB dB|c2 A2 cA|FD FA cA|B2 G2 dB|
GD GB dB|c2 A2 cA|FD FA cA|G2 G2:||
